packages/fxa-settings/src/components/ConnectedServices/tablet.svg

<svg width="16" height="14" viewBox="0 0 16 14" fill="none" xmlns="http://www.w3.org/2000/svg">
<path fill-rule="evenodd" clip-rule="evenodd" d="M14 0H2C0.89543 0 0 0.89543 0 2V12C0 13.1046 0.89543 14 2 14H14C15.1046 14 16 13.1046 16 12V2C16 0.89543 15.1046 0 14 0ZM13 11.5C13 11.7761 12.7761 12 12.5 12H2.5C2.22386 12 2 11.7761 2 11.5V2.5C2 2.22386 2.22386 2 2.5 2H12.5C12.7761 2 13 2.22386 13 2.5V11.5ZM14 8H15V6H14V8Z" fill="#20123A"/>
</svg>

<svg width="16" height="14" fill="none" xmlns="http://www.w3.org/2000/svg"><path fill-rule="evenodd" clip-rule="evenodd" d="M14 0H2a2 2 0 00-2 2v10a2 2 0 002 2h12a2 2 0 002-2V2a2 2 0 00-2-2zm-1 11.5a.5.5 0 01-.5.5h-10a.5.5 0 01-.5-.5v-9a.5.5 0 01.5-.5h10a.5.5 0 01.5.5v9zM14 8h1V6h-1v2z" fill="#20123A"/></svg>
